img/sprite_auto.svg

<svg xmlns="http://www.w3.org/2000/svg"><style>:root svg:not(:target){display:none}</style><svg viewBox="0 0 21 20" fill="none" id="mailto">
<path d="M18.0584 0H2.94568C1.59663 0 0.5 1.441 0.5 3.2137V16.7863C0.5 18.559 1.59663 20 2.94568 20H18.0543C19.4034 20 20.5 18.559 20.5 16.7863V3.21914C20.5041 1.44644 19.4075 0 18.0584 0ZM19.3868 16.7863C19.3868 17.7488 18.7909 18.5318 18.0584 18.5318H2.94568C2.21322 18.5318 1.61732 17.7488 1.61732 16.7863V3.21914C1.61732 2.25666 2.21322 1.47363 2.94568 1.47363H18.0543C18.7868 1.47363 19.3827 2.25666 19.3827 3.21914V16.7863H19.3868Z" fill="#00B2FF"></path>
<path d="M13.1133 9.83144L18.0047 4.06744C18.2323 3.79555 18.253 3.33334 18.0461 3.02883C17.8392 2.72975 17.4874 2.70256 17.2557 2.97445L10.5104 10.9299L9.19446 9.38554C9.19032 9.38011 9.18618 9.37467 9.18618 9.36923C9.15721 9.33117 9.12824 9.29854 9.09514 9.26591L3.74029 2.96901C3.50855 2.69713 3.1568 2.72431 2.94989 3.02883C2.74298 3.33334 2.76367 3.79555 2.99541 4.06744L7.94471 9.88038L3.0161 15.9435C2.79264 16.2208 2.78022 16.683 2.99127 16.9821C3.103 17.1343 3.25198 17.2159 3.40096 17.2159C3.53752 17.2159 3.67408 17.1506 3.78167 17.0201L8.78477 10.87L10.1421 12.4633C10.2497 12.5884 10.3821 12.6482 10.5145 12.6482C10.647 12.6482 10.7835 12.5829 10.887 12.4579L12.2816 10.8157L17.2557 17.0256C17.3633 17.1615 17.504 17.2268 17.6405 17.2268C17.7895 17.2268 17.9344 17.1506 18.0461 16.9984C18.2571 16.7047 18.2489 16.2371 18.0254 15.9598L13.1133 9.83144Z" fill="#00B2FF"></path>
</svg><svg viewBox="0 0 21 20" fill="none" id="tel">
<path d="M16.3147 12.3893C15.9047 11.9629 15.4101 11.735 14.8859 11.735C14.366 11.735 13.8672 11.9587 13.4402 12.3851L12.1044 13.7147C11.9945 13.6556 11.8846 13.6007 11.7789 13.5459C11.6267 13.4699 11.483 13.3981 11.3604 13.3222C10.1091 12.5286 8.97196 11.4944 7.88132 10.1563C7.35291 9.48936 6.99782 8.92795 6.73995 8.35809C7.08659 8.04151 7.40786 7.71226 7.72068 7.39567C7.83905 7.27748 7.95741 7.15507 8.07578 7.03688C8.9635 6.15044 8.9635 5.00229 8.07578 4.11585L6.92173 2.96348C6.79068 2.83262 6.65541 2.69755 6.52859 2.56247C6.27495 2.30076 6.00863 2.03061 5.73386 1.77734C5.32381 1.37211 4.83345 1.15683 4.31772 1.15683C3.80199 1.15683 3.30317 1.37211 2.88045 1.77734C2.87622 1.78156 2.87622 1.78156 2.87199 1.78578L1.43471 3.23363C0.893623 3.77394 0.585031 4.43243 0.517395 5.19646C0.41594 6.42903 0.779486 7.57718 1.05849 8.32854C1.74331 10.1732 2.76631 11.8827 4.29236 13.7147C6.14391 15.9224 8.37168 17.6657 10.9165 18.8941C11.8888 19.3542 13.1866 19.8987 14.6365 19.9916C14.7253 19.9958 14.8183 20 14.9028 20C15.8793 20 16.6994 19.6496 17.342 18.9532C17.3462 18.9447 17.3547 18.9405 17.3589 18.932C17.5787 18.6661 17.8323 18.4255 18.0987 18.168C18.2804 17.995 18.4664 17.8134 18.6482 17.6235C19.0667 17.1887 19.2865 16.6822 19.2865 16.163C19.2865 15.6396 19.0625 15.1372 18.6355 14.7151L16.3147 12.3893ZM17.8281 16.8341C17.8239 16.8341 17.8239 16.8384 17.8281 16.8341C17.6633 17.0114 17.4942 17.1718 17.3124 17.3491C17.0376 17.6108 16.7586 17.8852 16.4965 18.1933C16.0696 18.6492 15.5665 18.8645 14.9071 18.8645C14.8437 18.8645 14.776 18.8645 14.7126 18.8603C13.4571 18.7801 12.2904 18.2904 11.4153 17.8725C9.02269 16.7159 6.92173 15.0739 5.17586 12.9929C3.73436 11.258 2.77054 9.65398 2.13222 7.93176C1.73908 6.88069 1.59535 6.06179 1.65876 5.28932C1.70103 4.79545 1.89126 4.386 2.24213 4.03565L3.68363 2.59624C3.89077 2.40207 4.11058 2.29654 4.32618 2.29654C4.59249 2.29654 4.80809 2.45694 4.94336 2.59202C4.94759 2.59624 4.95181 2.60046 4.95604 2.60468C5.2139 2.84529 5.45909 3.09433 5.71695 3.36026C5.848 3.49534 5.98327 3.63042 6.11854 3.76971L7.27259 4.92209C7.72068 5.36953 7.72068 5.7832 7.27259 6.23064C7.15 6.35305 7.03164 6.47546 6.90905 6.59366C6.55395 6.95667 6.21577 7.29437 5.848 7.62361C5.83954 7.63206 5.83109 7.63628 5.82686 7.64472C5.46332 8.00774 5.53095 8.36231 5.60704 8.60292C5.61127 8.61558 5.6155 8.62824 5.61972 8.64091C5.91986 9.36694 6.34259 10.0508 6.98514 10.8654L6.98936 10.8697C8.15609 12.3049 9.38623 13.4235 10.7432 14.2803C10.9165 14.3901 11.0941 14.4787 11.2631 14.5632C11.4153 14.6391 11.5591 14.7109 11.6816 14.7869C11.6986 14.7953 11.7155 14.808 11.7324 14.8164C11.8761 14.8882 12.0114 14.922 12.1509 14.922C12.5017 14.922 12.7216 14.7025 12.7934 14.6307L14.2392 13.1871C14.3829 13.0436 14.6112 12.8705 14.8775 12.8705C15.1396 12.8705 15.3552 13.0351 15.4862 13.1786C15.4904 13.1829 15.4904 13.1829 15.4947 13.1871L17.8239 15.5129C18.2593 15.9435 18.2593 16.3867 17.8281 16.8341Z" fill="#00B2FF"></path>
<path d="M11.3095 4.75747C12.4171 4.9432 13.4232 5.46662 14.2264 6.26863C15.0295 7.07065 15.5495 8.07528 15.7397 9.18122C15.7862 9.45981 16.0272 9.65399 16.3019 9.65399C16.3358 9.65399 16.3654 9.64977 16.3992 9.64554C16.712 9.59489 16.9191 9.29941 16.8684 8.98705C16.6401 7.64895 16.006 6.42904 15.038 5.4624C14.0699 4.49576 12.8483 3.86258 11.5082 3.63464C11.1954 3.58399 10.9037 3.79083 10.8488 4.09897C10.7938 4.40711 10.9967 4.70681 11.3095 4.75747Z" fill="#00B2FF"></path>
<path d="M20.4913 8.82242C20.1151 6.61899 19.0752 4.61395 17.4773 3.01836C15.8794 1.42277 13.8714 0.384369 11.6648 0.00868773C11.3562 -0.0461871 11.0645 0.16487 11.0095 0.473013C10.9588 0.785377 11.1659 1.07664 11.4788 1.13151C13.4487 1.46498 15.2453 2.39785 16.6741 3.82038C18.1029 5.24712 19.0329 7.0411 19.3669 9.00815C19.4134 9.28675 19.6543 9.48092 19.9291 9.48092C19.9629 9.48092 19.9925 9.4767 20.0263 9.47248C20.3349 9.42605 20.5463 9.13057 20.4913 8.82242Z" fill="#00B2FF"></path>
</svg></svg>

<?xml version="1.0" encoding="utf-8"?><svg viewBox="0 0 21 20" xmlns="http://www.w3.org/2000/svg" xmlns:xlink="http://www.w3.org/1999/xlink"><style>:root>svg{display:none}:root>svg:target{display:block}</style><svg fill="none" viewBox="0 0 21 20" id="mailto" xmlns="http://www.w3.org/2000/svg"><path d="M18.058 0H2.946C1.596 0 .5 1.441.5 3.214v13.572C.5 18.56 1.597 20 2.946 20h15.108c1.35 0 2.446-1.441 2.446-3.214V3.22C20.504 1.446 19.407 0 18.058 0Zm1.329 16.786c0 .963-.596 1.746-1.329 1.746H2.946c-.733 0-1.329-.783-1.329-1.746V3.22c0-.962.596-1.745 1.329-1.745h15.108c.733 0 1.329.783 1.329 1.745v13.567h.004Z" fill="#00B2FF"/><path d="m13.113 9.831 4.892-5.764c.227-.271.248-.734.041-1.038-.207-.3-.559-.326-.79-.055L10.51 10.93 9.194 9.386c-.004-.006-.008-.011-.008-.017a.946.946 0 0 0-.09-.103L3.74 2.969c-.231-.272-.583-.245-.79.06-.207.304-.186.767.045 1.038l4.95 5.813-4.929 6.063c-.223.278-.236.74-.025 1.04.112.151.261.233.41.233a.495.495 0 0 0 .38-.196l5.004-6.15 1.357 1.593a.49.49 0 0 0 .373.185.49.49 0 0 0 .372-.19l1.395-1.642 4.974 6.21a.493.493 0 0 0 .384.2.505.505 0 0 0 .406-.228c.211-.293.203-.76-.02-1.038L13.112 9.83Z" fill="#00B2FF"/></svg><svg fill="none" viewBox="0 0 21 20" id="tel" xmlns="http://www.w3.org/2000/svg"><path d="M16.315 12.39c-.41-.427-.905-.655-1.43-.655-.519 0-1.018.224-1.445.65l-1.336 1.33c-.11-.06-.22-.114-.325-.17a5.407 5.407 0 0 1-.419-.223c-1.25-.793-2.388-1.828-3.479-3.166-.528-.667-.883-1.228-1.141-1.798.347-.316.668-.646.98-.962.12-.119.237-.24.356-.36.887-.886.887-2.034 0-2.92L6.922 2.963c-.131-.13-.267-.265-.393-.4-.254-.262-.52-.532-.795-.786-.41-.405-.9-.62-1.416-.62-.516 0-1.015.215-1.438.62l-.008.009-1.437 1.448a3.086 3.086 0 0 0-.918 1.962C.416 6.43.78 7.577 1.058 8.33c.685 1.844 1.708 3.554 3.234 5.386a19.89 19.89 0 0 0 6.624 5.18c.973.46 2.27 1.004 3.72 1.097.09.004.182.008.267.008.976 0 1.796-.35 2.439-1.047.004-.008.013-.012.017-.021.22-.266.473-.506.74-.764.181-.173.367-.355.55-.544.418-.435.637-.942.637-1.461 0-.523-.224-1.026-.65-1.448l-2.321-2.326Zm1.513 4.444c-.004 0-.004.004 0 0-.165.177-.334.338-.516.515-.274.262-.553.536-.816.844-.426.456-.93.671-1.589.671-.063 0-.131 0-.194-.004-1.256-.08-2.423-.57-3.298-.988a18.775 18.775 0 0 1-6.24-4.88c-1.44-1.734-2.404-3.338-3.043-5.06-.393-1.051-.537-1.87-.473-2.643.042-.494.232-.903.583-1.253l1.442-1.44c.207-.194.427-.3.642-.3.266 0 .482.16.617.296l.013.013c.258.24.503.49.76.755.132.135.267.27.403.41l1.154 1.152c.448.448.448.861 0 1.309-.123.122-.241.244-.364.363-.355.363-.693.7-1.061 1.03-.008.008-.017.012-.021.02-.364.364-.296.718-.22.959l.013.038c.3.726.723 1.41 1.365 2.224l.004.005c1.167 1.435 2.397 2.554 3.754 3.41.173.11.351.199.52.283.152.076.296.148.419.224.017.008.034.021.05.03a.917.917 0 0 0 .419.105c.35 0 .57-.22.642-.291l1.446-1.444c.144-.143.372-.316.638-.316.263 0 .478.164.61.308a.34.34 0 0 0 .008.008l2.329 2.326c.435.43.435.874.004 1.321ZM11.31 4.757a5.363 5.363 0 0 1 2.916 1.512A5.378 5.378 0 0 1 15.74 9.18a.567.567 0 0 0 .562.473c.034 0 .063-.004.097-.008a.57.57 0 0 0 .47-.659 6.508 6.508 0 0 0-1.831-3.525 6.523 6.523 0 0 0-3.53-1.827.574.574 0 0 0-.66.464.564.564 0 0 0 .461.658ZM20.491 8.822a10.705 10.705 0 0 0-3.014-5.804 10.732 10.732 0 0 0-5.812-3.01.569.569 0 1 0-.186 1.124 9.61 9.61 0 0 1 5.195 2.688 9.559 9.559 0 0 1 2.693 5.188.567.567 0 0 0 .562.473.56.56 0 0 0 .562-.659Z" fill="#00B2FF"/></svg></svg>
